account-tie-woman.svg

<svg fill="currentColor" viewBox="0 0 24 24"><path d="M11.94 3A3.993 3.993 0 0 0 8 7c-.06 1.64-.19 3.47-.97 4.59C9.71 13.22 12 13 12 13s2.29.22 4.97-1.41C16.12 10.22 15.94 8.54 16 7c0-2.21-1.79-4-4-4zM8.86 13.32C6 13.93 4 15.35 4 17v4h8l-3-4H6.5m5.5 4 1.78-7.19S13 14 12 14s-1.78-.19-1.78-.19M12 21h8v-4c0-1.65-2-3.07-4.86-3.68L17.5 17H15Z"/></svg>

<svg  viewBox="0 0 24 24" fill="currentColor"><path  d="M11.94 3C9.75 3.03 8 4.81 8 7C7.94 8.64 7.81 10.47 7.03 11.59C9.71 13.22 12 13 12 13C12 13 14.29 13.22 16.97 11.59C16.12 10.22 15.94 8.54 16 7C16 4.79 14.21 3 12 3H11.94M8.86 13.32C6 13.93 4 15.35 4 17V21H12L9 17H6.5M12 21L13.78 13.81C13.78 13.81 13 14 12 14C11 14 10.22 13.81 10.22 13.81M12 21H20V17C20 15.35 18 13.93 15.14 13.32L17.5 17H15Z"/></svg>
